svgs/thin/chart-line-down.svg

<svg xmlns="http://www.w3.org/2000/svg" viewBox="0 0 512 512"><!-- Font Awesome Pro 6.0.0-alpha2 by @fontawesome - https://fontawesome.com License - https://fontawesome.com/license (Commercial License) --><path d="M186.35 261.656C189.475 264.781 194.537 264.781 197.662 261.656L288.006 171.312L452.693 336H352.006C347.6 336 344.006 339.578 344.006 344S347.6 352 352.006 352H472.006C476.412 352 480.006 348.422 480.006 344V224C480.006 219.578 476.412 216 472.006 216S464.006 219.578 464.006 224V324.688L293.662 154.344C290.537 151.219 285.475 151.219 282.35 154.344L192.006 244.688L109.656 162.336C108.094 160.773 106.062 159.992 104 159.992S99.906 160.773 98.344 162.336C95.219 165.461 95.219 170.523 98.344 173.648L186.35 261.656ZM504 464H72C41.125 464 16 438.875 16 408V40C16 35.594 12.406 32 8 32S0 35.594 0 40V408C0 447.688 32.312 480 72 480H504C508.406 480 512 476.406 512 472S508.406 464 504 464Z"/></svg>

<svg xmlns="http://www.w3.org/2000/svg" viewBox="0 0 512 512"><!--! Font Awesome Pro 6.4.0 by @fontawesome - https://fontawesome.com License - https://fontawesome.com/license (Commercial License) Copyright 2023 Fonticons, Inc. --><path d="M16 40c0-4.4-3.6-8-8-8s-8 3.6-8 8V408c0 39.8 32.2 72 72 72H504c4.4 0 8-3.6 8-8s-3.6-8-8-8H72c-30.9 0-56-25.1-56-56V40zM352 352H472c4.4 0 8-3.6 8-8V224c0-4.4-3.6-8-8-8s-8 3.6-8 8V324.7L293.7 154.3c-3.1-3.1-8.2-3.1-11.3 0L192 244.7l-90.3-90.3c-3.1-3.1-8.2-3.1-11.3 0s-3.1 8.2 0 11.3l96 96c3.1 3.1 8.2 3.1 11.3 0L288 171.3 452.7 336H352c-4.4 0-8 3.6-8 8s3.6 8 8 8z"/></svg>
